svg/blobs-icons/no-decorations/goods-trolley.svg

<svg xmlns="http://www.w3.org/2000/svg" xmlns:xlink="http://www.w3.org/1999/xlink" preserveAspectRatio="xMidYMid" width="216" height="184" viewBox="0 0 216 184"><defs><style>.cls-3{fill:#142a3b}.cls-5{fill:#2476ff}.cls-6{fill:#000;opacity:.35}.cls-7{fill:#ff3a2f}.cls-8{fill:#fbb713}.cls-10{fill:#000;opacity:.25}</style></defs><g id="group-88svg"><path d="M70.68 137.26C69.048 137.26 67.571 136.14 67.185 134.481L42.07 26.291S2.042 6.833 2.042 6.833C.256 5.966-.486 3.817.381 2.035 1.248.246 3.4-.491 5.182.373L48.293 21.328s25.89 111.529 25.89 111.529C74.632 134.79 73.429 136.719 71.496 137.167 71.222 137.231 70.951 137.26 70.68 137.26z" id="path-1" class="cls-3" fill-rule="evenodd"/><path d="M101.982 151.061C100.349 151.061 98.87 149.941 98.486 148.279 98.039 146.346 99.242 144.417 101.175 143.97l109.982-25.487C213.086 118.035 215.017 119.239 215.467 121.171 215.914 123.103 214.711 125.033 212.778 125.481L102.796 150.968C102.524 151.031 102.25 151.061 101.982 151.061z" id="path-2" class="cls-3" fill-rule="evenodd"/><path d="M106.019 150.805C109.294 164.914 100.502 179.005 86.379 182.278c-14.122 3.273-28.227-5.512-31.502-19.621-3.276-14.111 5.518-28.202 19.64-31.474 14.122-3.273 28.227 5.512 31.502 19.622z" id="path-3" class="cls-5" fill-rule="evenodd"/><path d="M93.222 178.748C79.099 182.019 64.995 173.234 61.72 159.124c-2.494-10.739 2.017-21.453 10.536-27.41C59.476 135.896 51.78 149.205 54.877 162.542c3.275 14.111 17.38 22.896 31.502 19.622C89.752 181.383 92.809 179.971 95.482 178.101 94.743 178.344 93.994 178.568 93.222 178.748z" id="path-4" class="cls-6" fill-rule="evenodd"/><path d="M169.123 103.839s-66.656 15.447-66.656 15.447-15.46-66.597-15.46-66.597 66.655-15.447 66.655-15.447 15.461 66.597 15.461 66.597z" id="path-5" class="cls-7" fill-rule="evenodd"/><path d="M113.668 46.511s-26.661 6.178-26.661 6.178S77.73 12.732 77.73 12.732s26.662-6.179 26.662-6.179S113.668 46.511 113.668 46.511z" id="path-6" class="cls-8" fill-rule="evenodd"/><path d="M109.309 112.335S95.005 50.722 95.005 50.722 87.007 52.575 87.007 52.575s15.46 66.598 15.46 66.598 66.656-15.447 66.656-15.447S167.966 98.743 167.966 98.743s-58.657 13.592-58.657 13.592z" id="path-7" class="cls-6" fill-rule="evenodd"/><path d="M93.849 45.739S85.73 10.764 85.73 10.764s-8 1.854-8 1.854 9.277 39.957 9.277 39.957 26.661-6.178 26.661-6.178S112.512 41.415 112.512 41.415s-18.663 4.324-18.663 4.324z" id="path-8" class="cls-10" fill-rule="evenodd"/></g></svg>

<svg xmlns="http://www.w3.org/2000/svg" xmlns:xlink="http://www.w3.org/1999/xlink" preserveAspectRatio="xMidYMid" width="216" height="184" viewBox="0 0 216 184">
  <defs>
    <style>

      .cls-3 {
        fill: #142a3b;
      }

      .cls-5 {
        fill: #2476ff;
      }

      .cls-6 {
        fill: #000000;
        opacity: 0.35;
      }

      .cls-7 {
        fill: #ff3a2f;
      }

      .cls-8 {
        fill: #fbb713;
      }

      .cls-10 {
        fill: #000000;
        opacity: 0.25;
      }
    </style>
  </defs>
  <g id="group-88svg">
    <path d="M70.680,137.260 C69.048,137.260 67.571,136.140 67.185,134.481 C67.185,134.481 42.070,26.291 42.070,26.291 C42.070,26.291 2.042,6.833 2.042,6.833 C0.256,5.966 -0.486,3.817 0.381,2.035 C1.248,0.246 3.400,-0.491 5.182,0.373 C5.182,0.373 48.293,21.328 48.293,21.328 C48.293,21.328 74.183,132.857 74.183,132.857 C74.632,134.790 73.429,136.719 71.496,137.167 C71.222,137.231 70.951,137.260 70.680,137.260 Z" id="path-1" class="cls-3" fill-rule="evenodd"/>
    <path d="M101.982,151.061 C100.349,151.061 98.870,149.941 98.486,148.279 C98.039,146.346 99.242,144.417 101.175,143.970 C101.175,143.970 211.157,118.483 211.157,118.483 C213.086,118.035 215.017,119.239 215.467,121.171 C215.914,123.103 214.711,125.033 212.778,125.481 C212.778,125.481 102.796,150.968 102.796,150.968 C102.524,151.031 102.250,151.061 101.982,151.061 Z" id="path-2" class="cls-3" fill-rule="evenodd"/>
    <path d="M106.019,150.805 C109.294,164.914 100.502,179.005 86.379,182.278 C72.257,185.551 58.152,176.766 54.877,162.657 C51.601,148.546 60.395,134.455 74.517,131.183 C88.639,127.910 102.744,136.695 106.019,150.805 Z" id="path-3" class="cls-5" fill-rule="evenodd"/>
    <path d="M93.222,178.748 C79.099,182.019 64.995,173.234 61.720,159.124 C59.226,148.385 63.737,137.671 72.256,131.714 C59.476,135.896 51.780,149.205 54.877,162.542 C58.152,176.653 72.257,185.438 86.379,182.164 C89.752,181.383 92.809,179.971 95.482,178.101 C94.743,178.344 93.994,178.568 93.222,178.748 Z" id="path-4" class="cls-6" fill-rule="evenodd"/>
    <path d="M169.123,103.839 C169.123,103.839 102.467,119.286 102.467,119.286 C102.467,119.286 87.007,52.689 87.007,52.689 C87.007,52.689 153.662,37.242 153.662,37.242 C153.662,37.242 169.123,103.839 169.123,103.839 Z" id="path-5" class="cls-7" fill-rule="evenodd"/>
    <path d="M113.668,46.511 C113.668,46.511 87.007,52.689 87.007,52.689 C87.007,52.689 77.730,12.732 77.730,12.732 C77.730,12.732 104.392,6.553 104.392,6.553 C104.392,6.553 113.668,46.511 113.668,46.511 Z" id="path-6" class="cls-8" fill-rule="evenodd"/>
    <path d="M109.309,112.335 C109.309,112.335 95.005,50.722 95.005,50.722 C95.005,50.722 87.007,52.575 87.007,52.575 C87.007,52.575 102.467,119.173 102.467,119.173 C102.467,119.173 169.123,103.726 169.123,103.726 C169.123,103.726 167.966,98.743 167.966,98.743 C167.966,98.743 109.309,112.335 109.309,112.335 Z" id="path-7" class="cls-6" fill-rule="evenodd"/>
    <path d="M93.849,45.739 C93.849,45.739 85.730,10.764 85.730,10.764 C85.730,10.764 77.730,12.618 77.730,12.618 C77.730,12.618 87.007,52.575 87.007,52.575 C87.007,52.575 113.668,46.397 113.668,46.397 C113.668,46.397 112.512,41.415 112.512,41.415 C112.512,41.415 93.849,45.739 93.849,45.739 Z" id="path-8" class="cls-10" fill-rule="evenodd"/>
  </g>
</svg>
